share/icons/Dash/cursors/select.svg

<?xml version="1.0" encoding="UTF-8" standalone="no"?>
<svg
   width="32"
   height="32"
   x="-1.000001"
   y="-1"
   style="fill:gray;stroke:black"
   version="1.1"
   id="svg2"
   sodipodi:docname="select.svg"
   inkscape:version="1.4.2 (ebf0e940, 2025-05-08)"
   xmlns:inkscape="http://www.inkscape.org/namespaces/inkscape"
   xmlns:sodipodi="http://sodipodi.sourceforge.net/DTD/sodipodi-0.dtd"
   xmlns="http://www.w3.org/2000/svg"
   xmlns:svg="http://www.w3.org/2000/svg">
  <style
     id="style1">@import './cursors.css';</style>
  <style
     id="style2">@import './cursors.css';</style>
  <sodipodi:namedview
     id="namedview1"
     pagecolor="#ffffff"
     bordercolor="#000000"
     borderopacity="0.25"
     inkscape:showpageshadow="2"
     inkscape:pageopacity="0.0"
     inkscape:pagecheckerboard="0"
     inkscape:deskcolor="#d1d1d1"
     inkscape:document-units="px"
     showgrid="true"
     inkscape:zoom="16.226407"
     inkscape:cx="16.084892"
     inkscape:cy="17.379079"
     inkscape:window-width="1512"
     inkscape:window-height="922"
     inkscape:window-maximized="1"
     inkscape:current-layer="layer1"
     inkscape:window-x="12"
     inkscape:window-y="44"
     showguides="false">
    <inkscape:grid
       type="modular"
       id="grid1"
       units="px"
       originx="-3.999999"
       originy="-4"
       spacingx="32"
       spacingy="32"
       empcolor="#0047cb"
       empopacity="0.30196078"
       color="#0047cb"
       opacity="0.14902"
       empspacing="0"
       enabled="true"
       visible="true"
       marginx="0"
       marginy="0"
       gapx="8"
       gapy="8" />
    <inkscape:grid
       type="xygrid"
       id="grid2"
       units="px"
       originx="-7.999999"
       originy="-8"
       spacingx="1"
       spacingy="1"
       empcolor="#0099e5"
       empopacity="0.30196078"
       color="#0099e5"
       opacity="0.14902"
       empspacing="4"
       enabled="true"
       visible="true" />
    <inkscape:grid
       id="grid21"
       units="px"
       originx="-7.999999"
       originy="-8"
       spacingx="0.5"
       spacingy="0.5"
       empcolor="#0099e5"
       empopacity="0.14901961"
       color="#0099e5"
       opacity="0.101961"
       empspacing="2"
       enabled="true"
       visible="true" />
  </sodipodi:namedview>
  <defs
     id="defs1" />
  <g
     inkscape:label="Layer 1"
     inkscape:groupmode="layer"
     id="layer1"
     inkscape:highlight-color="#000000"
     transform="translate(-7.999999,-8)">
    <g
       id="g101"
       inkscape:label="select"
       class="drop-shadow">
      <g
         id="use96"
         inkscape:label="bouncing box"
         style="fill:#ffd5d5;fill-opacity:0"
         transform="translate(120.01229,-80)">
        <rect
           style="opacity:1;fill:#ffd5d5;fill-opacity:0;fill-rule:evenodd;stroke:none;stroke-width:1"
           id="rect1"
           width="32"
           height="32"
           x="-112.01229"
           y="88"
           inkscape:label="bbox" />
      </g>
      <g
         style="fill:#808080;stroke:#000000"
         id="g38-3"
         transform="translate(6,7.0791664)">
        <path
           d="m 3.5,4 v 0.00126 0 V 17 18.5 l 0.9,-1.2 2.5145,-3.3528 2.63819,5.2764 0.22361,0.4472 0.4472,-0.2236 2,-1 0.4472,-0.2236 L 12.4471,17.7764 9.80892,12.5 h 4.19098 1.4256 L 14.3122,11.6095 4.31232,3.61081 3.5,2.96105 Z"
           fill="#000000"
           stroke="#ffffff"
           id="path1-50" />
      </g>
    </g>
  </g>
</svg>

<?xml version="1.0" encoding="UTF-8" standalone="no"?>
<svg xmlns:inkscape="http://www.inkscape.org/namespaces/inkscape" xmlns:sodipodi="http://sodipodi.sourceforge.net/DTD/sodipodi-0.dtd" xmlns="http://www.w3.org/2000/svg" xmlns:svg="http://www.w3.org/2000/svg" width="32" height="32" x="-2.9448276" y="-1.9630383" style="fill:gray;stroke:black" version="1.1" id="svg1" sodipodi:docname="select.svg">
  <style id="style1">@import './cursors.css';</style>
  <g id="cursor" class="drop-shadow" style="">
    <path d="M3.5 4V4.00126V4.00126V17V18.5L4.4 17.3L6.9145 13.9472L9.55269 19.2236L9.7763 19.6708L10.2235 19.4472L12.2235 18.4472L12.6707 18.2236L12.4471 17.7764L9.80892 12.5H13.9999H15.4255L14.3122 11.6095L4.31232 3.61081L3.5 2.96105V4Z" fill="black" stroke="white" id="path1"/>
  </g>
</svg>
